projects/music-player/images/pause.svg

<svg width="39" height="39" viewBox="0 0 39 39" fill="none" xmlns="http://www.w3.org/2000/svg">
<path d="M32.607 5.71088C25.1474 -1.90235 13.0542 -1.9049 5.59467 5.71088C-1.86489 13.325 -1.86489 25.6714 5.59467 33.2881C13.0526 40.9038 25.1474 40.9038 32.607 33.2881C40.0641 25.6723 40.0641 13.3258 32.607 5.71088ZM16.7198 26.9901C16.7198 28.2322 15.7334 29.2376 14.5176 29.2376C13.3019 29.2376 12.3163 28.2322 12.3163 26.9901V12.0105C12.3163 10.7702 13.3019 9.76309 14.5176 9.76309C15.7334 9.76309 16.7198 10.7702 16.7198 12.0105V26.9901ZM25.8837 26.9901C25.8837 28.2322 24.8973 29.2376 23.6824 29.2376C22.4675 29.2376 21.481 28.2322 21.481 26.9901V12.0105C21.481 10.7702 22.4675 9.76309 23.6824 9.76309C24.8973 9.76309 25.8837 10.7702 25.8837 12.0105V26.9901Z" fill="#F26600"/>
</svg>

<svg width="39" height="39" fill="none" xmlns="http://www.w3.org/2000/svg"><path d="M32.607 5.71a18.826 18.826 0 0 0-27.012 0c-7.46 7.615-7.46 19.961 0 27.578a18.824 18.824 0 0 0 27.012 0c7.457-7.616 7.457-19.962 0-27.577ZM16.72 26.99c0 1.242-.987 2.248-2.202 2.248-1.216 0-2.202-1.006-2.202-2.248V12.01c0-1.24.986-2.247 2.202-2.247 1.215 0 2.202 1.007 2.202 2.248v14.98Zm9.164 0c0 1.242-.987 2.248-2.202 2.248-1.214 0-2.201-1.006-2.201-2.248V12.01c0-1.24.986-2.247 2.201-2.247s2.202 1.007 2.202 2.248v14.98Z" fill="#F26600"/></svg>
